dhis-2/dhis-support/dhis-support-system/src/main/resources/SVGs/odontology_negative.svg

<svg width="48" height="48" viewBox="0 0 48 48" fill="none" xmlns="http://www.w3.org/2000/svg">
<path fill-rule="evenodd" clip-rule="evenodd" d="M0.132808 0.000189998C0.0593613 0.000189998 0 0.0595513 0 0.132998V47.8664C0 47.9404 0.0593613 47.9994 0.132808 47.9994H47.8662C47.9402 47.9994 47.9992 47.9404 47.9992 47.8664V0.132998C47.9992 0.0593613 47.9402 0 47.8662 0H0.132808V0.000189998ZM34.5614 4.00214C40.9343 4.11244 42.9393 9.61627 40.5773 17.076C39.8034 15.5105 38.6074 14.1925 37.1242 13.2707C35.641 12.3489 33.9297 11.86 32.1834 11.859C30.9529 11.8589 29.7344 12.1012 28.5976 12.5721C27.4607 13.0429 26.4278 13.7331 25.5577 14.6032C24.6876 15.4733 23.9974 16.5062 23.5265 17.6431C23.0557 18.78 22.8134 19.9984 22.8135 21.2289C22.8136 22.4593 23.0559 23.6777 23.5268 24.8144C23.9977 25.9512 24.6879 26.984 25.558 27.854C26.4281 28.724 27.461 29.4141 28.5978 29.8849C29.7346 30.3557 30.953 30.5979 32.1834 30.5978C33.3076 30.5962 34.4224 30.3923 35.4744 29.9958C34.1284 35.7067 32.9134 42.8197 29.9994 43.9996C26.1155 24.5079 20.8695 24.4999 16.9996 43.9996C13.4836 39.6147 12.8726 30.5918 9.57979 23.9959C3.63566 11.415 5.99703 1.32017 17.9746 4.76213C18.2826 4.85053 17.9896 5.72022 18.2946 5.86732C19.1326 6.27171 19.5436 5.43272 19.9996 5.43962C21.2935 5.45902 22.0395 7.1848 23.8825 7.1896C25.8345 7.2458 26.5235 5.39342 28.0075 5.33412C28.3325 5.32112 28.8794 6.44351 29.7884 5.95322C30.3254 5.66382 29.6634 4.82793 30.0154 4.74423C32.2434 4.21364 34.5614 3.97804 34.5614 4.00214ZM32.1834 13.98C33.1353 13.98 34.0779 14.1675 34.9573 14.5318C35.8368 14.8961 36.6358 15.43 37.3089 16.1032C37.9819 16.7763 38.5158 17.5754 38.8799 18.4549C39.2441 19.3344 39.4315 20.277 39.4313 21.2289C39.4313 22.1807 39.2439 23.1232 38.8797 24.0026C38.5154 24.882 37.9815 25.681 37.3085 26.354C36.6355 27.0271 35.8365 27.5609 34.9571 27.9252C34.0777 28.2894 33.1352 28.4769 32.1834 28.4768C30.2615 28.4764 28.4184 27.7125 27.0596 26.3533C25.7008 24.9941 24.9374 23.1509 24.9375 21.2289C24.9372 19.3068 25.7004 17.4633 27.0592 16.1039C28.4181 14.7445 30.2613 13.9805 32.1834 13.98ZM31.1674 15.352C31.0944 15.352 31.0344 15.411 31.0344 15.484V20.0799H26.4375C26.3635 20.0799 26.3065 20.1389 26.3065 20.2129V22.2459C26.3065 22.3199 26.3635 22.3789 26.4375 22.3789H31.0344V26.9749C31.0344 27.0479 31.0944 27.1069 31.1674 27.1069H33.1984C33.2724 27.1069 33.3314 27.0479 33.3314 26.9749V22.3789H37.9293C38.0023 22.3789 38.0603 22.3199 38.0603 22.2459V20.2129C38.0603 20.1389 38.0023 20.0799 37.9293 20.0799H33.3314V15.484C33.3314 15.411 33.2724 15.352 33.1984 15.352H31.1674Z" fill="#333333"/>
</svg>

<?xml version="1.0" encoding="UTF-8" standalone="no"?>
<!-- Created with Inkscape (http://www.inkscape.org/) -->
<svg id="svg8" xmlns:rdf="http://www.w3.org/1999/02/22-rdf-syntax-ns#" xmlns="http://www.w3.org/2000/svg" xmlns:osb="http://www.openswatchbook.org/uri/2009/osb" height="48" width="48" version="1.1" xmlns:cc="http://creativecommons.org/ns#" viewBox="0 0 12.7 12.7" xmlns:dc="http://purl.org/dc/elements/1.1/">
 <title id="title4753">UIO-icon</title>
 <metadata id="metadata5">
  <rdf:RDF>
   <cc:Work rdf:about="">
    <dc:format>image/svg+xml</dc:format>
    <dc:type rdf:resource="http://purl.org/dc/dcmitype/StillImage"/>
    <dc:title>UIO-icon</dc:title>
    <dc:creator>
     <cc:Agent>
      <dc:title>Joaquín Urbano</dc:title>
     </cc:Agent>
    </dc:creator>
    <dc:rights>
     <cc:Agent>
      <dc:title>GPL</dc:title>
     </cc:Agent>
    </dc:rights>
   </cc:Work>
  </rdf:RDF>
 </metadata>
 <g id="layer1" transform="translate(0,-284.3)">
  <path id="rect2002" d="m0.13281 0c-0.073448 0-0.13281 0.059362-0.13281 0.13281v47.734c-1.8504e-17 0.074 0.059362 0.133 0.13281 0.133h47.734c0.074 0 0.133-0.059 0.133-0.133v-47.734c0-0.073638-0.059-0.133-0.133-0.133h-47.734zm34.429 4.002c6.373 0.1103 8.378 5.6142 6.016 13.074a9.3692 9.3692 0 0 0 -8.394 -5.217 9.3692 9.3692 0 0 0 -9.37 9.37 9.3692 9.3692 0 0 0 9.37 9.369 9.3692 9.3692 0 0 0 3.291 -0.602c-1.346 5.711-2.561 12.824-5.475 14.004-3.884-19.492-9.13-19.5-13 0-3.516-4.385-4.127-13.408-7.4199-20.004-5.9442-12.581-3.5828-22.676 8.3949-19.234 0.308 0.0884 0.015 0.9581 0.32 1.1052 0.838 0.4044 1.249-0.4346 1.705-0.4277 1.294 0.0194 2.04 1.7452 3.883 1.75 1.952 0.0562 2.641-1.7962 4.125-1.8555 0.325-0.013 0.872 1.1094 1.781 0.6191 0.537-0.2894-0.125-1.1253 0.227-1.209 2.228-0.5306 4.546-0.7662 4.546-0.7421zm-2.378 9.978a7.2478 7.2478 0 0 1 7.248 7.249 7.2478 7.2478 0 0 1 -7.248 7.248 7.2478 7.2478 0 0 1 -7.246 -7.248 7.2478 7.2478 0 0 1 7.246 -7.249zm-1.016 1.372c-0.073 0-0.133 0.059-0.133 0.132v4.596h-4.597c-0.074 0-0.131 0.059-0.131 0.133v2.033c0 0.074 0.057 0.133 0.131 0.133h4.597v4.596c0 0.073 0.06 0.132 0.133 0.132h2.031c0.074 0 0.133-0.059 0.133-0.132v-4.596h4.598c0.073 0 0.131-0.059 0.131-0.133v-2.033c0-0.074-0.058-0.133-0.131-0.133h-4.598v-4.596c0-0.073-0.059-0.132-0.133-0.132h-2.031z" fill-rule="evenodd" transform="matrix(.26458 0 0 .26458 0 284.3)" fill="#333"/>
 </g>
</svg>
